X: 1
T: Fiddler's Cramp
M: 4/4
L: 1/8
R: hornpipe
K: Fmaj
AB|cfdf egce|(3fga fc (3ABc AF|EFGA Bdc=B|c=Bcd c2A_B|
cfdf egce|(3fga fc (3ABc AF|EFGA BdcB|(3AGF GE F2:|
|:Ac|(3BAG (3AGF (3EGB (3dcB|(3Acf (3Acf (3agf (3edc|(3d^cd (3Bdf (3bag (3fed|(3c=Bc (3Acf (3agf (3edc|(3dba (3gfe (3dfe (3dcB|(3AGF (3AcA F2:|
